X:3
T:Argyle Bowling Green
M:4/4
S:photocopy, Potomac Valley Scottish Fiddle Club
I:speed 300
K:C
|:E | CE c2 cded | cGAc GcED | CEc2 cded | cAGE D2 D:|
c | GEcE GEEA | GEcE G2 GA | GEcE GEEF | GAGE D2 Da |
gec'e geea | gec'e g2 ga | gec'e geef | gage d2 d ||
